assets/colors.svg

<?xml version="1.0" encoding="UTF-8" standalone="no"?>
<svg width="195px" height="183px" viewBox="0 0 195 183" version="1.1" xmlns="http://www.w3.org/2000/svg" xmlns:xlink="http://www.w3.org/1999/xlink" xmlns:sketch="http://www.bohemiancoding.com/sketch/ns">
    <!-- Generator: Sketch 3.3.1 (12002) - http://www.bohemiancoding.com/sketch -->
    <title>Oval 43 + Oval 43 + Oval 43</title>
    <desc>Created with Sketch.</desc>
    <defs></defs>
    <g id="Page-1" stroke="none" stroke-width="1" fill="none" fill-rule="evenodd" sketch:type="MSPage">
        <g id="03-Styles" sketch:type="MSArtboardGroup" transform="translate(-623.000000, -3944.000000)">
            <g id="Oval-43-+-Oval-43-+-Oval-43" sketch:type="MSLayerGroup" transform="translate(623.000000, 3944.000000)">
                <path d="M130,182.5 C165.622366,182.5 194.5,153.622366 194.5,118 C194.5,82.3776336 165.622366,53.5 130,53.5 C94.3776336,53.5 65.5,82.3776336 65.5,118 C65.5,153.622366 94.3776336,182.5 130,182.5 L130,182.5 Z M130,179.5 C96.0344879,179.5 68.5,151.965512 68.5,118 C68.5,84.0344879 96.0344879,56.5 130,56.5 C163.965512,56.5 191.5,84.0344879 191.5,118 C191.5,151.965512 163.965512,179.5 130,179.5 L130,179.5 Z" id="Shape" fill="#6200EE" sketch:type="MSShapeGroup"></path>
                <path d="M65,182.5 C100.622366,182.5 129.5,153.622366 129.5,118 C129.5,82.3776336 100.622366,53.5 65,53.5 C29.3776336,53.5 0.5,82.3776336 0.5,118 C0.5,153.622366 29.3776336,182.5 65,182.5 L65,182.5 Z M65,179.5 C31.0344879,179.5 3.5,151.965512 3.5,118 C3.5,84.0344879 31.0344879,56.5 65,56.5 C98.9655121,56.5 126.5,84.0344879 126.5,118 C126.5,151.965512 98.9655121,179.5 65,179.5 L65,179.5 Z" id="Shape" fill="#F0F5C1" sketch:type="MSShapeGroup"></path>
                <path d="M95,129.5 C130.622366,129.5 159.5,100.622366 159.5,65 C159.5,29.3776336 130.622366,0.5 95,0.5 C59.3776336,0.5 30.5,29.3776336 30.5,65 C30.5,100.622366 59.3776336,129.5 95,129.5 L95,129.5 Z M95,126.5 C61.0344879,126.5 33.5,98.9655121 33.5,65 C33.5,31.0344879 61.0344879,3.5 95,3.5 C128.965512,3.5 156.5,31.0344879 156.5,65 C156.5,98.9655121 128.965512,126.5 95,126.5 L95,126.5 Z" id="Shape" fill="#FF897D" sketch:type="MSShapeGroup"></path>
            </g>
        </g>
    </g>
</svg>

<svg width="195" height="183" viewBox="0 0 195 183" xmlns="http://www.w3.org/2000/svg"><title>Oval 43 + Oval 43 + Oval 43</title><g fill="none" fill-rule="evenodd"><path d="M130 182.5c35.622 0 64.5-28.878 64.5-64.5S165.622 53.5 130 53.5 65.5 82.378 65.5 118s28.878 64.5 64.5 64.5zm0-3c-33.966 0-61.5-27.534-61.5-61.5S96.034 56.5 130 56.5s61.5 27.534 61.5 61.5-27.534 61.5-61.5 61.5z" fill="#6200EE"/><path d="M65 182.5c35.622 0 64.5-28.878 64.5-64.5S100.622 53.5 65 53.5.5 82.378.5 118s28.878 64.5 64.5 64.5zm0-3c-33.966 0-61.5-27.534-61.5-61.5S31.034 56.5 65 56.5s61.5 27.534 61.5 61.5-27.534 61.5-61.5 61.5z" fill="#F0F5C1"/><path d="M95 129.5c35.622 0 64.5-28.878 64.5-64.5S130.622.5 95 .5 30.5 29.378 30.5 65s28.878 64.5 64.5 64.5zm0-3c-33.966 0-61.5-27.534-61.5-61.5S61.034 3.5 95 3.5s61.5 27.534 61.5 61.5-27.534 61.5-61.5 61.5z" fill="#FF897D"/></g></svg>
